teeny/outline/figma.svg

<svg width="15" height="15" viewBox="0 0 15 15" fill="none" xmlns="http://www.w3.org/2000/svg">
<path d="M7.5 1V9.5M7.5 9.5V11.5C7.5 12.6046 6.60457 13.5 5.5 13.5C4.39543 13.5 3.5 12.6046 3.5 11.5C3.5 10.3954 4.39543 9.5 5.5 9.5M7.5 9.5H5.5M5.5 9.5C4.39543 9.5 3.5 8.60457 3.5 7.5C3.5 6.39543 4.39543 5.5 5.5 5.5M5.5 5.5H7.5M5.5 5.5H9.5M5.5 5.5C4.39543 5.5 3.5 4.60457 3.5 3.5C3.5 2.39543 4.39543 1.5 5.5 1.5H9.5C10.6046 1.5 11.5 2.39543 11.5 3.5C11.5 4.60457 10.6046 5.5 9.5 5.5M9.5 5.5C10.6046 5.5 11.5 6.39543 11.5 7.5C11.5 8.60457 10.6046 9.5 9.5 9.5C8.39543 9.5 7.5 8.60457 7.5 7.5C7.5 6.39543 8.39543 5.5 9.5 5.5Z" stroke="black"/>
</svg>

<svg viewBox="0 0 15 15" xmlns="http://www.w3.org/2000/svg"><path fill="none" stroke="#000" d="M7.5 1v8.5m0 0v2c0 1.1-.9 2-2 2 -1.11 0-2-.9-2-2 0-1.11.89-2 2-2m2 0h-2m0 0c-1.11 0-2-.9-2-2 0-1.11.89-2 2-2m0 0h2m-2 0h4m-4 0c-1.11 0-2-.9-2-2 0-1.11.89-2 2-2h4c1.1 0 2 .89 2 2 0 1.1-.9 2-2 2m0 0c1.1 0 2 .89 2 2 0 1.1-.9 2-2 2 -1.11 0-2-.9-2-2 0-1.11.89-2 2-2Z"/></svg>
